images/graph.svg

<svg height="52.84pt" viewBox="0 0 52.84 52.84" width="52.84pt" xmlns="http://www.w3.org/2000/svg" xmlns:xlink="http://www.w3.org/1999/xlink"><symbol id="a" overflow="visible"><path d="m3.3125-.75c.046875.390625.3125.8125.78125.8125.21875 0 .828125-.140625.828125-.953125v-.5625h-.25v.5625c0 .578125-.25.640625-.359375.640625-.328125 0-.375-.453125-.375-.5v-1.984375c0-.421875 0-.8125-.359375-1.1875-.390625-.390625-.890625-.546875-1.359375-.546875-.828125 0-1.515625.46875-1.515625 1.125 0 .296875.203125.46875.46875.46875.28125 0 .453125-.203125.453125-.453125 0-.125-.046875-.453125-.515625-.453125.28125-.359375.765625-.46875 1.078125-.46875.5 0 1.0625.390625 1.0625 1.28125v.359375c-.515625.03125-1.203125.0625-1.828125.359375-.75.34375-1 .859375-1 1.296875 0 .8125.96875 1.0625 1.59375 1.0625.65625 0 1.109375-.40625 1.296875-.859375zm-.0625-1.640625v1c0 .9375-.71875 1.28125-1.171875 1.28125-.484375 0-.890625-.34375-.890625-.84375 0-.546875.421875-1.375 2.0625-1.4375zm0 0"/></symbol><symbol id="b" overflow="visible"><path d="m1.71875-3.765625v-3.15625l-1.4375.109375v.3125c.703125 0 .78125.0625.78125.5625v5.9375h.25c0-.015625.078125-.15625.359375-.625.140625.234375.5625.734375 1.296875.734375 1.1875 0 2.21875-.984375 2.21875-2.265625 0-1.265625-.96875-2.25-2.109375-2.25-.78125 0-1.203125.46875-1.359375.640625zm.03125 2.625v-2.046875c0-.1875 0-.203125.109375-.359375.390625-.5625.9375-.640625 1.171875-.640625.453125 0 .8125.265625 1.046875.640625.265625.40625.28125.96875.28125 1.390625 0 .359375-.015625.953125-.296875 1.40625-.21875.3125-.59375.640625-1.125.640625-.453125 0-.8125-.234375-1.046875-.609375-.140625-.203125-.140625-.234375-.140625-.421875zm0 0"/></symbol><symbol id="c" overflow="visible"><path d="m1.171875-2.171875c0-1.625.8125-2.046875 1.34375-2.046875.09375 0 .71875.015625 1.0625.375-.40625.03125-.46875.328125-.46875.453125 0 .265625.1875.453125.453125.453125s.46875-.15625.46875-.46875c0-.671875-.765625-1.0625-1.53125-1.0625-1.25 0-2.15625 1.078125-2.15625 2.3125 0 1.28125.984375 2.265625 2.140625 2.265625 1.328125 0 1.65625-1.203125 1.65625-1.296875s-.109375-.09375-.140625-.09375c-.078125 0-.109375.03125-.125.09375-.28125.921875-.9375 1.046875-1.296875 1.046875-.53125 0-1.40625-.421875-1.40625-2.03125zm0 0"/></symbol><symbol id="d" overflow="visible"><path d="m3.78125-.546875v.65625l1.46875-.109375v-.3125c-.6875 0-.78125-.0625-.78125-.5625v-6.046875l-1.421875.109375v.3125c.6875 0 .765625.0625.765625.5625v2.15625c-.28125-.359375-.71875-.625-1.25-.625-1.171875 0-2.21875.984375-2.21875 2.265625 0 1.265625.96875 2.25 2.109375 2.25.640625 0 1.078125-.34375 1.328125-.65625zm0-2.671875v2.046875c0 .171875 0 .1875-.109375.359375-.296875.484375-.734375.703125-1.171875.703125-.453125 0-.8125-.265625-1.046875-.640625-.25-.40625-.28125-.96875-.28125-1.390625 0-.359375.015625-.953125.296875-1.40625.21875-.3125.59375-.640625 1.140625-.640625.34375 0 .765625.15625 1.0625.59375.109375.171875.109375.1875.109375.375zm0 0"/></symbol><symbol id="e" overflow="visible"><path d="m1.109375-2.515625c.0625-1.484375.90625-1.734375 1.25-1.734375 1.015625 0 1.125 1.34375 1.125 1.734375zm0 .21875h2.78125c.21875 0 .25 0 .25-.21875 0-.984375-.546875-1.953125-1.78125-1.953125-1.15625 0-2.078125 1.03125-2.078125 2.28125 0 1.328125 1.046875 2.296875 2.1875 2.296875 1.21875 0 1.671875-1.109375 1.671875-1.296875 0-.09375-.078125-.125-.140625-.125-.078125 0-.109375.0625-.125.140625-.34375 1.03125-1.25 1.03125-1.34375 1.03125-.5 0-.890625-.296875-1.125-.671875-.296875-.46875-.296875-1.125-.296875-1.484375zm0 0"/></symbol><path d="m5.978438-.001875c0 3.304687-2.675782 5.980469-5.976563 5.980469-3.304687 0-5.980469-2.675782-5.980469-5.980469 0-3.300781 2.675782-5.976563 5.980469-5.976563 3.300781 0 5.976563 2.675782 5.976563 5.976563zm0 0" fill="#d9d9d9" stroke="#000" stroke-miterlimit="10" stroke-width=".79701" transform="matrix(1 0 0 -1 26.42 26.42)"/><use x="23.929" xlink:href="#a" y="28.565"/><path d="m-14.068437 20.045c0 3.300781-2.675782 5.976562-5.976563 5.976562s-5.976562-2.675781-5.976562-5.976562 2.675781-5.976563 5.976562-5.976563 5.976563 2.675782 5.976563 5.976563zm0 0" fill="#d9d9d9" stroke="#000" stroke-miterlimit="10" stroke-width=".79701" transform="matrix(1 0 0 -1 26.42 26.42)"/><use x="3.609" xlink:href="#b" y="9.835"/><path d="m26.021406 20.045c0 3.300781-2.675781 5.976562-5.976562 5.976562s-5.976563-2.675781-5.976563-5.976562 2.675782-5.976563 5.976563-5.976563 5.976562 2.675782 5.976562 5.976563zm0 0" fill="#d9d9d9" stroke="#000" stroke-miterlimit="10" stroke-width=".79701" transform="matrix(1 0 0 -1 26.42 26.42)"/><use x="44.25" xlink:href="#c" y="8.521"/><path d="m26.021406-20.044844c0 3.300781-2.675781 5.976563-5.976562 5.976563s-5.976563-2.675782-5.976563-5.976563 2.675782-5.976562 5.976563-5.976562 5.976562 2.675781 5.976562 5.976562zm0 0" fill="#d9d9d9" stroke="#000" stroke-miterlimit="10" stroke-width=".79701" transform="matrix(1 0 0 -1 26.42 26.42)"/><use x="43.697" xlink:href="#d" y="49.923"/><path d="m-14.068437-20.044844c0 3.300781-2.675782 5.976563-5.976563 5.976563s-5.976562-2.675782-5.976562-5.976563 2.675781-5.976562 5.976562-5.976562 5.976563 2.675781 5.976563 5.976562zm0 0" fill="#d9d9d9" stroke="#000" stroke-miterlimit="10" stroke-width=".79701" transform="matrix(1 0 0 -1 26.42 26.42)"/><use x="4.162" xlink:href="#e" y="48.609"/><path d="m-4.509844 4.509844-9.195312 9.195312" fill="none" stroke="#000" stroke-miterlimit="10" stroke-width=".79701" transform="matrix(1 0 0 -1 26.42 26.42)"/><path d="m10.882812 10.882812 1.46875 4.398438.363282-2.566406 2.566406-.367188"/><path d="m-4.509844-4.509688-9.195312-9.195312" fill="none" stroke="#000" stroke-miterlimit="10" stroke-width=".79701" transform="matrix(1 0 0 -1 26.42 26.42)"/><path d="m10.882812 41.957031 4.398438-1.464843-2.566406-.367188-.363282-2.566406"/><path d="m-13.67 20.045h24.746094" fill="none" stroke="#000" stroke-miterlimit="10" stroke-width=".79701" transform="matrix(1 0 0 -1 26.42 26.42)"/><path d="m40.089844 6.375-4.144532-2.070312 1.550782 2.070312-1.550782 2.074219"/><path d="m20.044844 13.67v-24.746094" fill="none" stroke="#000" stroke-miterlimit="10" stroke-width=".79701" transform="matrix(1 0 0 -1 26.42 26.42)"/><path d="m46.464844 40.089844 2.070312-4.144532-2.070312 1.550782-2.074219-1.550782"/><path d="m18.3925-13.872969c-1.753906 6.535156-5.6875 10.46875-9.714844 11.546875" fill="none" stroke="#000" stroke-miterlimit="10" stroke-width=".79701" transform="matrix(1 0 0 -1 26.42 26.42)"/><path d="m32.589844 28.074219 3.476562 3.078125-.96875-2.40625 2.042969-1.601563"/><path d="m1.654219-6.169844c1.75-6.535156 5.683594-10.46875 9.710937-11.550781" fill="none" stroke="#000" stroke-miterlimit="10" stroke-width=".79701" transform="matrix(1 0 0 -1 26.42 26.42)"/><path d="m40.292969 44.8125-3.472657-3.082031.964844 2.410156-2.039062 1.601563"/></svg>

<?xml version="1.0" encoding="UTF-8"?>
<svg xmlns="http://www.w3.org/2000/svg" xmlns:xlink="http://www.w3.org/1999/xlink" width="52.84pt" height="52.84pt" viewBox="0 0 52.84 52.84" version="1.1">
<defs>
<g>
<symbol overflow="visible" id="glyph0-0">
<path style="stroke:none;" d=""/>
</symbol>
<symbol overflow="visible" id="glyph0-1">
<path style="stroke:none;" d="M 3.3125 -0.75 C 3.359375 -0.359375 3.625 0.0625 4.09375 0.0625 C 4.3125 0.0625 4.921875 -0.078125 4.921875 -0.890625 L 4.921875 -1.453125 L 4.671875 -1.453125 L 4.671875 -0.890625 C 4.671875 -0.3125 4.421875 -0.25 4.3125 -0.25 C 3.984375 -0.25 3.9375 -0.703125 3.9375 -0.75 L 3.9375 -2.734375 C 3.9375 -3.15625 3.9375 -3.546875 3.578125 -3.921875 C 3.1875 -4.3125 2.6875 -4.46875 2.21875 -4.46875 C 1.390625 -4.46875 0.703125 -4 0.703125 -3.34375 C 0.703125 -3.046875 0.90625 -2.875 1.171875 -2.875 C 1.453125 -2.875 1.625 -3.078125 1.625 -3.328125 C 1.625 -3.453125 1.578125 -3.78125 1.109375 -3.78125 C 1.390625 -4.140625 1.875 -4.25 2.1875 -4.25 C 2.6875 -4.25 3.25 -3.859375 3.25 -2.96875 L 3.25 -2.609375 C 2.734375 -2.578125 2.046875 -2.546875 1.421875 -2.25 C 0.671875 -1.90625 0.421875 -1.390625 0.421875 -0.953125 C 0.421875 -0.140625 1.390625 0.109375 2.015625 0.109375 C 2.671875 0.109375 3.125 -0.296875 3.3125 -0.75 Z M 3.25 -2.390625 L 3.25 -1.390625 C 3.25 -0.453125 2.53125 -0.109375 2.078125 -0.109375 C 1.59375 -0.109375 1.1875 -0.453125 1.1875 -0.953125 C 1.1875 -1.5 1.609375 -2.328125 3.25 -2.390625 Z M 3.25 -2.390625 "/>
</symbol>
<symbol overflow="visible" id="glyph0-2">
<path style="stroke:none;" d="M 1.71875 -3.765625 L 1.71875 -6.921875 L 0.28125 -6.8125 L 0.28125 -6.5 C 0.984375 -6.5 1.0625 -6.4375 1.0625 -5.9375 L 1.0625 0 L 1.3125 0 C 1.3125 -0.015625 1.390625 -0.15625 1.671875 -0.625 C 1.8125 -0.390625 2.234375 0.109375 2.96875 0.109375 C 4.15625 0.109375 5.1875 -0.875 5.1875 -2.15625 C 5.1875 -3.421875 4.21875 -4.40625 3.078125 -4.40625 C 2.296875 -4.40625 1.875 -3.9375 1.71875 -3.765625 Z M 1.75 -1.140625 L 1.75 -3.1875 C 1.75 -3.375 1.75 -3.390625 1.859375 -3.546875 C 2.25 -4.109375 2.796875 -4.1875 3.03125 -4.1875 C 3.484375 -4.1875 3.84375 -3.921875 4.078125 -3.546875 C 4.34375 -3.140625 4.359375 -2.578125 4.359375 -2.15625 C 4.359375 -1.796875 4.34375 -1.203125 4.0625 -0.75 C 3.84375 -0.4375 3.46875 -0.109375 2.9375 -0.109375 C 2.484375 -0.109375 2.125 -0.34375 1.890625 -0.71875 C 1.75 -0.921875 1.75 -0.953125 1.75 -1.140625 Z M 1.75 -1.140625 "/>
</symbol>
<symbol overflow="visible" id="glyph0-3">
<path style="stroke:none;" d="M 1.171875 -2.171875 C 1.171875 -3.796875 1.984375 -4.21875 2.515625 -4.21875 C 2.609375 -4.21875 3.234375 -4.203125 3.578125 -3.84375 C 3.171875 -3.8125 3.109375 -3.515625 3.109375 -3.390625 C 3.109375 -3.125 3.296875 -2.9375 3.5625 -2.9375 C 3.828125 -2.9375 4.03125 -3.09375 4.03125 -3.40625 C 4.03125 -4.078125 3.265625 -4.46875 2.5 -4.46875 C 1.25 -4.46875 0.34375 -3.390625 0.34375 -2.15625 C 0.34375 -0.875 1.328125 0.109375 2.484375 0.109375 C 3.8125 0.109375 4.140625 -1.09375 4.140625 -1.1875 C 4.140625 -1.28125 4.03125 -1.28125 4 -1.28125 C 3.921875 -1.28125 3.890625 -1.25 3.875 -1.1875 C 3.59375 -0.265625 2.9375 -0.140625 2.578125 -0.140625 C 2.046875 -0.140625 1.171875 -0.5625 1.171875 -2.171875 Z M 1.171875 -2.171875 "/>
</symbol>
<symbol overflow="visible" id="glyph0-4">
<path style="stroke:none;" d="M 3.78125 -0.546875 L 3.78125 0.109375 L 5.25 0 L 5.25 -0.3125 C 4.5625 -0.3125 4.46875 -0.375 4.46875 -0.875 L 4.46875 -6.921875 L 3.046875 -6.8125 L 3.046875 -6.5 C 3.734375 -6.5 3.8125 -6.4375 3.8125 -5.9375 L 3.8125 -3.78125 C 3.53125 -4.140625 3.09375 -4.40625 2.5625 -4.40625 C 1.390625 -4.40625 0.34375 -3.421875 0.34375 -2.140625 C 0.34375 -0.875 1.3125 0.109375 2.453125 0.109375 C 3.09375 0.109375 3.53125 -0.234375 3.78125 -0.546875 Z M 3.78125 -3.21875 L 3.78125 -1.171875 C 3.78125 -1 3.78125 -0.984375 3.671875 -0.8125 C 3.375 -0.328125 2.9375 -0.109375 2.5 -0.109375 C 2.046875 -0.109375 1.6875 -0.375 1.453125 -0.75 C 1.203125 -1.15625 1.171875 -1.71875 1.171875 -2.140625 C 1.171875 -2.5 1.1875 -3.09375 1.46875 -3.546875 C 1.6875 -3.859375 2.0625 -4.1875 2.609375 -4.1875 C 2.953125 -4.1875 3.375 -4.03125 3.671875 -3.59375 C 3.78125 -3.421875 3.78125 -3.40625 3.78125 -3.21875 Z M 3.78125 -3.21875 "/>
</symbol>
<symbol overflow="visible" id="glyph0-5">
<path style="stroke:none;" d="M 1.109375 -2.515625 C 1.171875 -4 2.015625 -4.25 2.359375 -4.25 C 3.375 -4.25 3.484375 -2.90625 3.484375 -2.515625 Z M 1.109375 -2.296875 L 3.890625 -2.296875 C 4.109375 -2.296875 4.140625 -2.296875 4.140625 -2.515625 C 4.140625 -3.5 3.59375 -4.46875 2.359375 -4.46875 C 1.203125 -4.46875 0.28125 -3.4375 0.28125 -2.1875 C 0.28125 -0.859375 1.328125 0.109375 2.46875 0.109375 C 3.6875 0.109375 4.140625 -1 4.140625 -1.1875 C 4.140625 -1.28125 4.0625 -1.3125 4 -1.3125 C 3.921875 -1.3125 3.890625 -1.25 3.875 -1.171875 C 3.53125 -0.140625 2.625 -0.140625 2.53125 -0.140625 C 2.03125 -0.140625 1.640625 -0.4375 1.40625 -0.8125 C 1.109375 -1.28125 1.109375 -1.9375 1.109375 -2.296875 Z M 1.109375 -2.296875 "/>
</symbol>
</g>
</defs>
<g id="surface1">
<path style="fill-rule:nonzero;fill:rgb(84.999084%,84.999084%,84.999084%);fill-opacity:1;stroke-width:0.79701;stroke-linecap:butt;stroke-linejoin:miter;stroke:rgb(0%,0%,0%);stroke-opacity:1;stroke-miterlimit:10;" d="M 5.978438 -0.001875 C 5.978438 3.302812 3.302656 5.978594 0.001875 5.978594 C -3.302812 5.978594 -5.978594 3.302812 -5.978594 -0.001875 C -5.978594 -3.302656 -3.302812 -5.978438 0.001875 -5.978438 C 3.302656 -5.978438 5.978438 -3.302656 5.978438 -0.001875 Z M 5.978438 -0.001875 " transform="matrix(1,0,0,-1,26.42,26.42)"/>
<g style="fill:rgb(0%,0%,0%);fill-opacity:1;">
  <use xlink:href="#glyph0-1" x="23.929" y="28.565"/>
</g>
<path style="fill-rule:nonzero;fill:rgb(84.999084%,84.999084%,84.999084%);fill-opacity:1;stroke-width:0.79701;stroke-linecap:butt;stroke-linejoin:miter;stroke:rgb(0%,0%,0%);stroke-opacity:1;stroke-miterlimit:10;" d="M -14.068437 20.045 C -14.068437 23.345781 -16.744219 26.021562 -20.045 26.021562 C -23.345781 26.021562 -26.021562 23.345781 -26.021562 20.045 C -26.021562 16.744219 -23.345781 14.068437 -20.045 14.068437 C -16.744219 14.068437 -14.068437 16.744219 -14.068437 20.045 Z M -14.068437 20.045 " transform="matrix(1,0,0,-1,26.42,26.42)"/>
<g style="fill:rgb(0%,0%,0%);fill-opacity:1;">
  <use xlink:href="#glyph0-2" x="3.609" y="9.835"/>
</g>
<path style="fill-rule:nonzero;fill:rgb(84.999084%,84.999084%,84.999084%);fill-opacity:1;stroke-width:0.79701;stroke-linecap:butt;stroke-linejoin:miter;stroke:rgb(0%,0%,0%);stroke-opacity:1;stroke-miterlimit:10;" d="M 26.021406 20.045 C 26.021406 23.345781 23.345625 26.021562 20.044844 26.021562 C 16.744063 26.021562 14.068281 23.345781 14.068281 20.045 C 14.068281 16.744219 16.744063 14.068437 20.044844 14.068437 C 23.345625 14.068437 26.021406 16.744219 26.021406 20.045 Z M 26.021406 20.045 " transform="matrix(1,0,0,-1,26.42,26.42)"/>
<g style="fill:rgb(0%,0%,0%);fill-opacity:1;">
  <use xlink:href="#glyph0-3" x="44.25" y="8.521"/>
</g>
<path style="fill-rule:nonzero;fill:rgb(84.999084%,84.999084%,84.999084%);fill-opacity:1;stroke-width:0.79701;stroke-linecap:butt;stroke-linejoin:miter;stroke:rgb(0%,0%,0%);stroke-opacity:1;stroke-miterlimit:10;" d="M 26.021406 -20.044844 C 26.021406 -16.744063 23.345625 -14.068281 20.044844 -14.068281 C 16.744063 -14.068281 14.068281 -16.744063 14.068281 -20.044844 C 14.068281 -23.345625 16.744063 -26.021406 20.044844 -26.021406 C 23.345625 -26.021406 26.021406 -23.345625 26.021406 -20.044844 Z M 26.021406 -20.044844 " transform="matrix(1,0,0,-1,26.42,26.42)"/>
<g style="fill:rgb(0%,0%,0%);fill-opacity:1;">
  <use xlink:href="#glyph0-4" x="43.697" y="49.923"/>
</g>
<path style="fill-rule:nonzero;fill:rgb(84.999084%,84.999084%,84.999084%);fill-opacity:1;stroke-width:0.79701;stroke-linecap:butt;stroke-linejoin:miter;stroke:rgb(0%,0%,0%);stroke-opacity:1;stroke-miterlimit:10;" d="M -14.068437 -20.044844 C -14.068437 -16.744063 -16.744219 -14.068281 -20.045 -14.068281 C -23.345781 -14.068281 -26.021562 -16.744063 -26.021562 -20.044844 C -26.021562 -23.345625 -23.345781 -26.021406 -20.045 -26.021406 C -16.744219 -26.021406 -14.068437 -23.345625 -14.068437 -20.044844 Z M -14.068437 -20.044844 " transform="matrix(1,0,0,-1,26.42,26.42)"/>
<g style="fill:rgb(0%,0%,0%);fill-opacity:1;">
  <use xlink:href="#glyph0-5" x="4.162" y="48.609"/>
</g>
<path style="fill:none;stroke-width:0.79701;stroke-linecap:butt;stroke-linejoin:miter;stroke:rgb(0%,0%,0%);stroke-opacity:1;stroke-miterlimit:10;" d="M -4.509844 4.509844 L -13.705156 13.705156 " transform="matrix(1,0,0,-1,26.42,26.42)"/>
<path style=" stroke:none;fill-rule:nonzero;fill:rgb(0%,0%,0%);fill-opacity:1;" d="M 10.882812 10.882812 L 12.351562 15.28125 L 12.714844 12.714844 L 15.28125 12.347656 "/>
<path style="fill:none;stroke-width:0.79701;stroke-linecap:butt;stroke-linejoin:miter;stroke:rgb(0%,0%,0%);stroke-opacity:1;stroke-miterlimit:10;" d="M -4.509844 -4.509688 L -13.705156 -13.705 " transform="matrix(1,0,0,-1,26.42,26.42)"/>
<path style=" stroke:none;fill-rule:nonzero;fill:rgb(0%,0%,0%);fill-opacity:1;" d="M 10.882812 41.957031 L 15.28125 40.492188 L 12.714844 40.125 L 12.351562 37.558594 "/>
<path style="fill:none;stroke-width:0.79701;stroke-linecap:butt;stroke-linejoin:miter;stroke:rgb(0%,0%,0%);stroke-opacity:1;stroke-miterlimit:10;" d="M -13.67 20.045 L 11.076094 20.045 " transform="matrix(1,0,0,-1,26.42,26.42)"/>
<path style=" stroke:none;fill-rule:nonzero;fill:rgb(0%,0%,0%);fill-opacity:1;" d="M 40.089844 6.375 L 35.945312 4.304688 L 37.496094 6.375 L 35.945312 8.449219 "/>
<path style="fill:none;stroke-width:0.79701;stroke-linecap:butt;stroke-linejoin:miter;stroke:rgb(0%,0%,0%);stroke-opacity:1;stroke-miterlimit:10;" d="M 20.044844 13.67 L 20.044844 -11.076094 " transform="matrix(1,0,0,-1,26.42,26.42)"/>
<path style=" stroke:none;fill-rule:nonzero;fill:rgb(0%,0%,0%);fill-opacity:1;" d="M 46.464844 40.089844 L 48.535156 35.945312 L 46.464844 37.496094 L 44.390625 35.945312 "/>
<path style="fill:none;stroke-width:0.79701;stroke-linecap:butt;stroke-linejoin:miter;stroke:rgb(0%,0%,0%);stroke-opacity:1;stroke-miterlimit:10;" d="M 18.3925 -13.872969 C 16.638594 -7.337813 12.705 -3.404219 8.677656 -2.326094 " transform="matrix(1,0,0,-1,26.42,26.42)"/>
<path style=" stroke:none;fill-rule:nonzero;fill:rgb(0%,0%,0%);fill-opacity:1;" d="M 32.589844 28.074219 L 36.066406 31.152344 L 35.097656 28.746094 L 37.140625 27.144531 "/>
<path style="fill:none;stroke-width:0.79701;stroke-linecap:butt;stroke-linejoin:miter;stroke:rgb(0%,0%,0%);stroke-opacity:1;stroke-miterlimit:10;" d="M 1.654219 -6.169844 C 3.404219 -12.705 7.337813 -16.638594 11.365156 -17.720625 " transform="matrix(1,0,0,-1,26.42,26.42)"/>
<path style=" stroke:none;fill-rule:nonzero;fill:rgb(0%,0%,0%);fill-opacity:1;" d="M 40.292969 44.8125 L 36.820312 41.730469 L 37.785156 44.140625 L 35.746094 45.742188 "/>
</g>
</svg>
